X:1079
T:The Happy Days of Youth
T:Sean McKenna's #2
C:from Liam O'Flynn
D:Liam O'Flynn: &quot;The Piper's Call&quot;
Z:transcription Johannes Schiefner(jschiefner@gmx.net)
Z:id:js_1079
R:reel
M:4/4
L:1/8
K:G
.B/.c/d|~e3d ~B3 A|GABG AE ~E2|~G3 B dBeB|dBAc BGGd|
.e.f.ed B.d BA|GABG AE ~E2|~G3B dBeB|dBAc BG G2 ||
fa{b}af gfed|.B/.c/d ef ~g3 f|eB ~B2 .g.fed|BAGA Bcde|
fa{b}af gfed|.B/.c/d ef ~g3a|bgaf gfed|.e/.f/g af ~g3f:|]
